tools/download-figma-icons/icons/outlined-medium/tipi.svg

<svg width="24" height="24" viewBox="0 0 24 24" fill="none" xmlns="http://www.w3.org/2000/svg">
<path fill-rule="evenodd" clip-rule="evenodd" d="M13.7865 22.5001L12 18.9271L10.2135 22.5001H13.7865ZM11.4698 11.7804L9.909 10.2197L4.1775 22.5002H8.5365L11.3288 16.9142C11.3366 16.8984 11.3478 16.8865 11.3591 16.8745L11.3591 16.8745C11.3671 16.866 11.3751 16.8574 11.382 16.8474C11.4105 16.8032 11.4398 16.7627 11.4773 16.7252C11.5133 16.6899 11.5515 16.6614 11.5935 16.6337C11.6046 16.6265 11.6142 16.6179 11.6239 16.6093L11.6239 16.6093C11.6365 16.5981 11.6491 16.587 11.6648 16.5789C11.6741 16.5742 11.6842 16.5724 11.6942 16.5707C11.7018 16.5693 11.7094 16.568 11.7165 16.5654C11.7625 16.5457 11.8085 16.5367 11.8566 16.5272L11.8605 16.5264L11.8739 16.5238C11.9165 16.5157 11.9579 16.5077 12 16.5077C12.0416 16.5077 12.082 16.5155 12.1238 16.5236L12.1388 16.5264L12.1427 16.5272C12.1908 16.5367 12.2368 16.5457 12.2828 16.5654C12.2897 16.5679 12.2972 16.5691 12.3047 16.5703C12.3151 16.572 12.3257 16.5737 12.3353 16.5789C12.3515 16.587 12.3644 16.5986 12.3771 16.6101C12.3867 16.6187 12.3963 16.6273 12.4073 16.6344C12.4485 16.6614 12.4868 16.6899 12.522 16.7244C12.5603 16.7627 12.5895 16.8032 12.618 16.8474C12.625 16.8575 12.6331 16.8663 12.6412 16.8751C12.6524 16.8871 12.6634 16.899 12.6713 16.9142L15.4635 22.5002H19.8225L14.091 10.2197L12.5303 11.7804C12.384 11.9267 12.192 12.0002 12 12.0002C11.808 12.0002 11.616 11.9267 11.4698 11.7804ZM12 10.1896L13.4167 8.77287L12 5.73762L10.5832 8.77287L12 10.1896ZM21.4777 22.5001H23.25C23.6647 22.5001 24 22.8354 24 23.2501C24 23.6641 23.6647 24.0001 23.25 24.0001H0.75C0.33525 24.0001 0 23.6641 0 23.2501C0 22.8354 0.33525 22.5001 0.75 22.5001H2.52225L11.172 3.96388L9.8205 1.06738C9.645 0.692384 9.807 0.245384 10.1827 0.0698836C10.5592 -0.104116 11.0048 0.0578836 11.1795 0.432884L12 2.19088L12.8205 0.432884C12.9952 0.0578836 13.4438 -0.103366 13.8173 0.0698836C14.193 0.245384 14.355 0.692384 14.1795 1.06738L12.828 3.96388L21.4777 22.5001ZM12.75 14.2499C12.75 14.6639 12.4148 14.9999 12 14.9999C11.5852 14.9999 11.25 14.6639 11.25 14.2499C11.25 13.8351 11.5852 13.4999 12 13.4999C12.4148 13.4999 12.75 13.8351 12.75 14.2499ZM14.25 14.9999C14.6648 14.9999 15 14.6639 15 14.2499C15 13.8351 14.6648 13.4999 14.25 13.4999C13.8352 13.4999 13.5 13.8351 13.5 14.2499C13.5 14.6639 13.8352 14.9999 14.25 14.9999ZM10.5 14.2499C10.5 14.6639 10.1648 14.9999 9.75 14.9999C9.33525 14.9999 9 14.6639 9 14.2499C9 13.8351 9.33525 13.4999 9.75 13.4999C10.1648 13.4999 10.5 13.8351 10.5 14.2499Z" fill="black"/>
</svg>

<svg width="24" height="24" viewBox="0 0 24 24" fill="none" xmlns="http://www.w3.org/2000/svg"><path fill-rule="evenodd" clip-rule="evenodd" d="M13.787 22.5 12 18.927 10.213 22.5h3.574ZM11.47 11.78l-1.561-1.56L4.177 22.5h4.36l2.792-5.586a.164.164 0 0 1 .03-.04.232.232 0 0 0 .023-.027.716.716 0 0 1 .095-.122.755.755 0 0 1 .117-.091l.03-.025a.2.2 0 0 1 .04-.03.101.101 0 0 1 .03-.008c.008-.002.015-.003.022-.006.046-.02.093-.028.14-.038h.005l.013-.003c.042-.008.084-.016.126-.016a.65.65 0 0 1 .124.016l.015.002.004.001c.048.01.094.019.14.038a.079.079 0 0 0 .022.005c.01.002.02.004.03.009a.19.19 0 0 1 .042.031l.03.024a.74.74 0 0 1 .115.09.717.717 0 0 1 .096.123c.007.01.015.02.023.028a.179.179 0 0 1 .03.04l2.793 5.585h4.359L14.09 10.22l-1.56 1.56a.748.748 0 0 1-1.061 0Zm.53-1.59 1.417-1.417L12 5.738l-1.417 3.035L12 10.19Zm9.478 12.31h1.772a.75.75 0 1 1 0 1.5H.75a.75.75 0 1 1 0-1.5h1.772l8.65-18.536L9.82 1.067a.75.75 0 1 1 1.36-.634L12 2.19l.82-1.758a.75.75 0 1 1 1.359.634l-1.351 2.897 8.65 18.536Zm-8.728-8.25a.75.75 0 1 1-1.5 0 .75.75 0 0 1 1.5 0Zm1.5.75a.75.75 0 1 0 0-1.5.75.75 0 0 0 0 1.5Zm-3.75-.75a.75.75 0 1 1-1.5 0 .75.75 0 0 1 1.5 0Z" fill="currentColor"/></svg>
